.local/share/icons/FairyWren_Dark/64x64/mimetypes/application-x-iso.svg

<?xml version="1.0" encoding="UTF-8" standalone="no"?>
<svg
   width="64"
   height="64"
   version="1.1"
   id="svg8"
   sodipodi:docname="nero-disc-image.svg"
   inkscape:version="1.3.2 (091e20ef0f, 2023-11-25, custom)"
   xmlns:inkscape="http://www.inkscape.org/namespaces/inkscape"
   xmlns:sodipodi="http://sodipodi.sourceforge.net/DTD/sodipodi-0.dtd"
   xmlns:xlink="http://www.w3.org/1999/xlink"
   xmlns="http://www.w3.org/2000/svg"
   xmlns:svg="http://www.w3.org/2000/svg">
  <defs
     id="defs8">
    <linearGradient
       id="linearGradient13"
       inkscape:collect="always">
      <stop
         style="stop-color:#ffffff;stop-opacity:1;"
         offset="0"
         id="stop14" />
      <stop
         style="stop-color:#ffffff;stop-opacity:0.70162719;"
         offset="1"
         id="stop15" />
    </linearGradient>
    <radialGradient
       inkscape:collect="always"
       xlink:href="#linearGradient13"
       id="radialGradient15"
       cx="32"
       cy="41"
       fx="32"
       fy="41"
       r="14"
       gradientUnits="userSpaceOnUse" />
    <radialGradient
       inkscape:collect="always"
       xlink:href="#linearGradient4"
       id="radialGradient15-3"
       cx="17.386076"
       cy="47.039314"
       fx="17.386076"
       fy="47.039314"
       r="22"
       gradientTransform="matrix(2.0221847,-2.0221847,2.5736897,2.5736897,-138.00161,-36.688012)"
       gradientUnits="userSpaceOnUse" />
    <linearGradient
       id="linearGradient4"
       inkscape:collect="always">
      <stop
         style="stop-color:#eb4a91;stop-opacity:1;"
         offset="0"
         id="stop3" />
      <stop
         style="stop-color:#fa7c6a;stop-opacity:1;"
         offset="1"
         id="stop4" />
    </linearGradient>
  </defs>
  <sodipodi:namedview
     id="namedview8"
     pagecolor="#ffffff"
     bordercolor="#000000"
     borderopacity="0.25"
     inkscape:showpageshadow="2"
     inkscape:pageopacity="0.0"
     inkscape:pagecheckerboard="0"
     inkscape:deskcolor="#d1d1d1"
     inkscape:zoom="13.890625"
     inkscape:cx="32"
     inkscape:cy="32.035996"
     inkscape:window-width="1920"
     inkscape:window-height="1014"
     inkscape:window-x="0"
     inkscape:window-y="0"
     inkscape:window-maximized="1"
     inkscape:current-layer="svg8" />
  <g
     id="g3">
    <g
       id="g2">
      <path
         style="fill:url(#radialGradient15-3)"
         d="M 12.75,4 C 11.2265,4 10,5.2488 10,6.8 v 50.4 c 0,1.55008 1.2265,2.8 2.75,2.8 h 38.5 C 52.7724,60 54,58.75008 54,57.2 V 22 L 36,4 Z"
         id="path2"
         sodipodi:nodetypes="ssssssccs" />
      <path
         style="opacity:0.457139;fill:#ffffff;fill-opacity:1"
         d="M 54,22 36,4 V 19.1875 C 36,20.74675 37.2555,22 38.8125,22 Z"
         id="path4" />
    </g>
  </g>
  <path
     d="m 32,27 c -7.755984,0 -14,6.244016 -14,14 0,7.755984 6.244016,14 14,14 7.755984,0 14,-6.244016 14,-14 0,-7.755984 -6.244016,-14 -14,-14 z m 0,7 c 3.865989,0 7,3.134011 7,7 0,3.865989 -3.134011,7 -7,7 -3.865989,0 -7,-3.134011 -7,-7 0,-3.865989 3.134011,-7 7,-7 z"
     style="fill:url(#radialGradient15)"
     id="path3" />
  <path
     d="m 32,34 a 7,7 0 0 0 -7,7 7,7 0 0 0 7,7 7,7 0 0 0 7,-7 7,7 0 0 0 -7,-7 z m 0,4 c 1.656898,0 3,1.343102 3,3 0,1.656898 -1.343102,3 -3,3 -1.656898,0 -3,-1.343102 -3,-3 0,-1.656898 1.343102,-3 3,-3 z"
     style="opacity:0.5;fill:#ffffff"
     id="path1" />
</svg>

<?xml version="1.0" encoding="UTF-8" standalone="no"?>
<svg
   width="64"
   height="64"
   version="1.1"
   id="svg8"
   sodipodi:docname="application-vnd.nintendo.snes.rom.svg"
   inkscape:version="1.3.2 (091e20ef0f, 2023-11-25, custom)"
   xmlns:inkscape="http://www.inkscape.org/namespaces/inkscape"
   xmlns:sodipodi="http://sodipodi.sourceforge.net/DTD/sodipodi-0.dtd"
   xmlns:xlink="http://www.w3.org/1999/xlink"
   xmlns="http://www.w3.org/2000/svg"
   xmlns:svg="http://www.w3.org/2000/svg">
  <defs
     id="defs8">
    <linearGradient
       id="linearGradient13"
       inkscape:collect="always">
      <stop
         style="stop-color:#ffffff;stop-opacity:1;"
         offset="0"
         id="stop14" />
      <stop
         style="stop-color:#ffffff;stop-opacity:0.70162719;"
         offset="1"
         id="stop15" />
    </linearGradient>
    <linearGradient
       id="linearGradient11"
       inkscape:collect="always">
      <stop
         style="stop-color:#ef8b9d;stop-opacity:1;"
         offset="0"
         id="stop12" />
      <stop
         style="stop-color:#ef8bc1;stop-opacity:0.99994004;"
         offset="1"
         id="stop13" />
    </linearGradient>
    <linearGradient
       id="linearGradient10"
       inkscape:collect="always">
      <stop
         style="stop-color:#be324d;stop-opacity:1;"
         offset="0"
         id="stop10" />
      <stop
         style="stop-color:#dd7cbb;stop-opacity:1;"
         offset="1"
         id="stop11" />
    </linearGradient>
    <filter
       inkscape:collect="always"
       style="color-interpolation-filters:sRGB"
       id="filter8"
       x="-0.11364082"
       y="-0.11364082"
       width="1.2272816"
       height="1.2272816">
      <feGaussianBlur
         inkscape:collect="always"
         stdDeviation="0.85230614"
         id="feGaussianBlur8" />
    </filter>
    <filter
       inkscape:collect="always"
       style="color-interpolation-filters:sRGB"
       id="filter9"
       x="-0.046489425"
       y="-0.036527405"
       width="1.0929789"
       height="1.0730548">
      <feGaussianBlur
         inkscape:collect="always"
         stdDeviation="0.85230614"
         id="feGaussianBlur9" />
    </filter>
    <filter
       inkscape:collect="always"
       style="color-interpolation-filters:sRGB"
       id="filter10"
       x="-0.073054811"
       y="-0.073054811"
       width="1.1461096"
       height="1.1461096">
      <feGaussianBlur
         inkscape:collect="always"
         stdDeviation="0.85230614"
         id="feGaussianBlur10" />
    </filter>
    <radialGradient
       inkscape:collect="always"
       xlink:href="#linearGradient10"
       id="radialGradient11"
       cx="12.596493"
       cy="51.037304"
       fx="12.596493"
       fy="51.037304"
       r="22"
       gradientTransform="matrix(2.397746,-2.397746,3.0516769,3.0516768,-173.35606,-69.31687)"
       gradientUnits="userSpaceOnUse" />
    <radialGradient
       inkscape:collect="always"
       xlink:href="#linearGradient11"
       id="radialGradient13"
       cx="27.996855"
       cy="27.549843"
       fx="27.996855"
       fy="27.549843"
       r="9"
       gradientUnits="userSpaceOnUse"
       gradientTransform="matrix(3.2801146,-1.893775,1.893775,3.2801146,-116.00924,-9.7970579)" />
    <radialGradient
       inkscape:collect="always"
       xlink:href="#linearGradient13"
       id="radialGradient15"
       cx="32"
       cy="41"
       fx="32"
       fy="41"
       r="14"
       gradientUnits="userSpaceOnUse" />
  </defs>
  <sodipodi:namedview
     id="namedview8"
     pagecolor="#ffffff"
     bordercolor="#000000"
     borderopacity="0.25"
     inkscape:showpageshadow="2"
     inkscape:pageopacity="0.0"
     inkscape:pagecheckerboard="0"
     inkscape:deskcolor="#d1d1d1"
     inkscape:zoom="13.890625"
     inkscape:cx="32"
     inkscape:cy="32"
     inkscape:window-width="1920"
     inkscape:window-height="1018"
     inkscape:window-x="0"
     inkscape:window-y="0"
     inkscape:window-maximized="1"
     inkscape:current-layer="svg8" />
  <path
     style="opacity:0.42703835;filter:url(#filter9)"
     d="M 12.75,5 C 11.2265,5 10,6.2488 10,7.8 v 50.4 c 0,1.55008 1.2265,2.8 2.75,2.8 h 38.5 C 52.7724,61 54,59.75008 54,58.2 V 23 L 40,19 36,5 Z"
     id="path1" />
  <path
     style="fill:url(#radialGradient11)"
     d="M 12.75,4 C 11.2265,4 10,5.2488 10,6.8 v 50.4 c 0,1.55008 1.2265,2.8 2.75,2.8 h 38.5 C 52.7724,60 54,58.75008 54,57.2 V 22 L 40,18 36,4 Z"
     id="path2" />
  <path
     style="opacity:0.42703835;filter:url(#filter8)"
     d="M 54,23 36,5 V 20.1875 C 36,21.74675 37.2555,23 38.8125,23 Z"
     id="path3" />
  <path
     style="fill:url(#radialGradient13)"
     d="M 54,22 36,4 V 19.1875 C 36,20.74675 37.2555,22 38.8125,22 Z"
     id="path4" />
  <path
     style="opacity:0.42703835;filter:url(#filter10)"
     d="m 32,28 c -7.756,0 -14,6.244 -14,14 0,7.756 6.244,14 14,14 7.756,0 14,-6.244 14,-14 0,-7.756 -6.244,-14 -14,-14 z m 0,8 a 6,6 0 0 1 6,6 6,6 0 0 1 -6,6 6,6 0 0 1 -6,-6 6,6 0 0 1 6,-6 z"
     id="path6" />
  <path
     style="fill:url(#radialGradient15)"
     d="M 32 27 C 24.244 27 18 33.244 18 41 C 18 48.756 24.244 55 32 55 C 39.756 55 46 48.756 46 41 C 46 33.244 39.756 27 32 27 z M 32 35 A 6 6 0 0 1 38 41 A 6 6 0 0 1 32 47 A 6 6 0 0 1 26 41 A 6 6 0 0 1 32 35 z"
     id="path7" />
  <path
     style="opacity:0.5;fill:#ffffff"
     d="M 32 34 A 7 7 0 0 0 25 41 A 7 7 0 0 0 32 48 A 7 7 0 0 0 39 41 A 7 7 0 0 0 32 34 z M 32 38 C 33.6569 38 35 39.3431 35 41 C 35 42.6569 33.6569 44 32 44 C 30.3431 44 29 42.6569 29 41 C 29 39.3431 30.3431 38 32 38 z"
     id="path8" />
</svg>
